src/assets/svg/additional/4-detail-stories.svg

<svg width="54" height="53" viewBox="0 0 54 53" fill="none" xmlns="http://www.w3.org/2000/svg">
<g clip-path="url(#clip0_105_123)">
<path d="M19.7785 21.4264L23.3467 12.4271L32.9247 11.0176L38.9338 18.6075L35.3659 27.6068L25.788 29.0162L19.7785 21.4264Z" fill="#E9E8E8" fill-opacity="0.8"/>
</g>
<g clip-path="url(#clip1_105_123)">
<path d="M7.58658 31.174L11.1548 22.1747L20.7328 20.7652L26.742 28.3551L23.174 37.3543L13.5961 38.7638L7.58658 31.174Z" fill="#E9E8E8" fill-opacity="0.8"/>
</g>
<g clip-path="url(#clip2_105_123)">
<path d="M21.987 36.8795L25.5552 27.8802L35.1332 26.4708L41.1423 34.0606L37.5744 43.0599L27.9965 44.4694L21.987 36.8795Z" fill="#E9E8E8" fill-opacity="0.8"/>
</g>
<defs>
<clipPath id="clip0_105_123">
<rect width="19.3617" height="19.3617" fill="white" transform="translate(18.3691 11.8489) rotate(-8.37148)"/>
</clipPath>
<clipPath id="clip1_105_123">
<rect width="19.3617" height="19.3617" fill="white" transform="translate(6.17725 21.5964) rotate(-8.37148)"/>
</clipPath>
<clipPath id="clip2_105_123">
<rect width="19.3617" height="19.3617" fill="white" transform="translate(20.5776 27.302) rotate(-8.37148)"/>
</clipPath>
</defs>
</svg>

<svg xmlns="http://www.w3.org/2000/svg" width="54" height="53" fill="none"><g clip-path="url(#a)"><path fill="#E9E8E8" fill-opacity=".8" d="m19.779 21.426 3.568-8.999 9.578-1.41 6.009 7.59-3.568 9-9.578 1.41-6.01-7.59Z"/></g><g clip-path="url(#b)"><path fill="#E9E8E8" fill-opacity=".8" d="m7.587 31.174 3.568-9 9.578-1.409 6.009 7.59-3.568 9-9.578 1.409-6.01-7.59Z"/></g><g clip-path="url(#c)"><path fill="#E9E8E8" fill-opacity=".8" d="m21.987 36.88 3.568-9 9.578-1.41 6.01 7.59-3.569 9-9.577 1.41-6.01-7.59Z"/></g><defs><clipPath id="a"><path fill="#fff" d="M18.37 11.849 37.524 9.03l2.819 19.156-19.156 2.819z"/></clipPath><clipPath id="b"><path fill="#fff" d="m6.177 21.596 19.156-2.819 2.819 19.156-19.156 2.82z"/></clipPath><clipPath id="c"><path fill="#fff" d="m20.578 27.302 19.155-2.819 2.82 19.156-19.156 2.819z"/></clipPath></defs></svg>
